img/close.svg

<svg width="17" height="16" viewBox="0 0 17 16" fill="none" xmlns="http://www.w3.org/2000/svg">
<path d="M10.4144 7.99995L16.6575 1.76968C17.0638 1.36443 17.0638 0.709193 16.6575 0.30394C16.2514 -0.101313 15.5948 -0.101313 15.1887 0.30394L8.94539 6.53421L2.70225 0.30394C2.29595 -0.101313 1.63953 -0.101313 1.23343 0.30394C0.827138 0.709193 0.827138 1.36443 1.23343 1.76968L7.47657 7.99995L1.23343 14.2302C0.827138 14.6355 0.827138 15.2907 1.23343 15.696C1.43582 15.8981 1.70192 15.9997 1.96784 15.9997C2.23376 15.9997 2.49967 15.8981 2.70225 15.696L8.94539 9.4657L15.1887 15.696C15.3913 15.8981 15.6572 15.9997 15.9231 15.9997C16.189 15.9997 16.455 15.8981 16.6575 15.696C17.0638 15.2907 17.0638 14.6355 16.6575 14.2302L10.4144 7.99995Z" fill="white"/>
</svg>

<svg width="17" height="16" viewBox="0 0 17 16" xmlns="http://www.w3.org/2000/svg" fill="none"><path d="M10.414 8l6.243-6.23c.406-.405.406-1.06 0-1.466-.406-.405-1.063-.405-1.469 0l-6.243 6.23-6.243-6.23c-.406-.405-1.063-.405-1.469 0-.406.405-.406 1.06 0 1.466l6.243 6.23-6.243 6.23c-.406.405-.406 1.06 0 1.466.202.202.468.304.734.304.266 0 .532-.102.734-.304l6.243-6.23 6.243 6.23c.203.202.468.304.734.304.266 0 .532-.102.734-.304.406-.405.406-1.06 0-1.466l-6.243-6.23z" fill="#fff"/></svg>
